icon/lg/vector.svg

<?xml version="1.0" encoding="UTF-8"?>
<svg viewBox="0 0 256 301" version="1.1" xmlns="http://www.w3.org/2000/svg" height="1em" width="1em">
  <defs>
    <linearGradient x1="13.5234674%" y1="74.6786913%" x2="86.4136075%" y2="25.3053691%" id="vectorLinearGradient-1">
      <stop stop-color="#10E7FF" offset="0%"/>
      <stop stop-color="#33D5FF" offset="10.3%"/>
      <stop stop-color="#60BDFF" offset="25.5%"/>
      <stop stop-color="#86AAFF" offset="40.8%"/>
      <stop stop-color="#A39AFF" offset="56%"/>
      <stop stop-color="#B790FF" offset="71%"/>
      <stop stop-color="#C489FF" offset="85.8%"/>
      <stop stop-color="#C887FF" offset="100%"/>
    </linearGradient>
    <linearGradient x1="21.0059701%" y1="54.0325908%" x2="96.4656716%" y2="27.0469592%" id="vectorLinearGradient-2">
      <stop stop-color="#10E7FF" offset="0%"/>
      <stop stop-color="#33D5FF" offset="10.3%"/>
      <stop stop-color="#60BDFF" offset="25.5%"/>
      <stop stop-color="#86AAFF" offset="40.8%"/>
      <stop stop-color="#A39AFF" offset="56%"/>
      <stop stop-color="#B790FF" offset="71%"/>
      <stop stop-color="#C489FF" offset="85.8%"/>
      <stop stop-color="#C887FF" offset="100%"/>
    </linearGradient>
  </defs>
  <g>
    <path d="M128,300.346456 L0,225.259843 L0,75.086614 L128,0 L256,75.086614 L256,225.259843 L128,300.346456 Z M17.8897638,214.677166 L127.748031,279.181103 L237.606299,214.677166 L237.606299,85.6692915 L128,21.1653544 L17.8897638,85.6692915 L17.8897638,214.677166 Z" fill="url(#vectorLinearGradient-1)"/>
    <path d="M183.181103,109.354331 L138.330709,188.220473 L152.944882,213.92126 L212.409449,109.354331 L183.181103,109.354331 L183.181103,109.354331 Z M133.03937,109.354331 L88.1889765,188.220473 L102.803149,213.92126 L162.267717,109.354331 L133.03937,109.354331 L133.03937,109.354331 Z M43.5905512,109.354331 L103.055118,213.92126 L117.669291,188.220473 L72.8188975,109.354331 L43.5905512,109.354331 L43.5905512,109.354331 Z M43.5905512,109.354331 L103.055118,213.92126 L117.669291,188.220473 L72.8188975,109.354331 L43.5905512,109.354331 L43.5905512,109.354331 Z M133.03937,109.354331 L88.1889765,188.220473 L102.803149,213.92126 L162.267717,109.354331 L133.03937,109.354331 L133.03937,109.354331 Z" fill="url(#vectorLinearGradient-2)"/>
  </g>
</svg>

<svg width="256" height="301" xmlns="http://www.w3.org/2000/svg"><defs><linearGradient x1="13.523%" y1="74.679%" x2="86.414%" y2="25.305%" id="a"><stop stop-color="#10E7FF" offset="0%"/><stop stop-color="#33D5FF" offset="10.3%"/><stop stop-color="#60BDFF" offset="25.5%"/><stop stop-color="#86AAFF" offset="40.8%"/><stop stop-color="#A39AFF" offset="56%"/><stop stop-color="#B790FF" offset="71%"/><stop stop-color="#C489FF" offset="85.8%"/><stop stop-color="#C887FF" offset="100%"/></linearGradient><linearGradient x1="21.006%" y1="54.033%" x2="96.466%" y2="27.047%" id="b"><stop stop-color="#10E7FF" offset="0%"/><stop stop-color="#33D5FF" offset="10.3%"/><stop stop-color="#60BDFF" offset="25.5%"/><stop stop-color="#86AAFF" offset="40.8%"/><stop stop-color="#A39AFF" offset="56%"/><stop stop-color="#B790FF" offset="71%"/><stop stop-color="#C489FF" offset="85.8%"/><stop stop-color="#C887FF" offset="100%"/></linearGradient></defs><path d="M128 300.346 0 225.26V75.087L128 0l128 75.087V225.26l-128 75.086ZM17.89 214.677l109.858 64.504 109.858-64.504V85.67L128 21.165 17.89 85.67v129.008Z" fill="url(#a)"/><path d="m183.181 109.354-44.85 78.866 14.614 25.701 59.464-104.567h-29.228Zm-50.142 0L88.19 188.22l14.614 25.701 59.465-104.567h-29.229Zm-89.448 0 59.464 104.567 14.614-25.7-44.85-78.867H43.59Zm0 0 59.464 104.567 14.614-25.7-44.85-78.867H43.59Zm89.448 0L88.19 188.22l14.614 25.701 59.465-104.567h-29.229Z" fill="url(#b)"/></svg>
